X: 621
T: Düştü Enginlere Bir İnce Hüzün
C: Refik Fersan
O: Turkey
F: http://compmusic.upf.edu/node/140
N: segah--sarki--murekkepnimsofyan--dustu_enginlere--refik_fersan
N: makam= segah
N: form= sarki
N: usul= murekkepnimsofyan = 12/16
M: 12/16
L: 1/16
K: C _1/4B _1/4e ^f 
Q: 1/4=180
%%MIDI tuningsystem comma53
G6 B4 c2  | d4 B2 d2 c2 A2  | G12  | G8-G2 z2  | \
w:  ARANAĞME  |   |   |   | 
g6 g2 e2 g2  | f2 d2 f2 e2 c2 e2  | 
w:   |   | 
d12  | d8-d2 z2  | g6 g2 ^3/4f2 e2  | ^1/4f2 e2 d2 c2 B2 d2  | c12  | \
w:   |   |   |   |   | 
c8-c2 B2  | d8-d2 B2  | 
w:   |   | 
c4 B2 B2 ^A2 {d}c B  | B12  | B8-B2 z2  | \
w:   |   |   | 
G6 B4 c2  | d4 c2 d2 c2 {d}c B  | B12  | \
w:  Düş tü   |  en *  gin *  *  le  |  re   | 
B8-B2 z2  | 
w:   | 
g8-g2 f2  | f4 e2 e d e2 f {c}d  | d6 d2 B2 d2  | \
w:  bir   |  in *  ce  *  *  hü  |  zün   SAZ  | 
c2 A2 c2 B2 A2 G2  | G6 B4 c2  | 
w:   |  Düş tü   | 
d4 c2 d2 c2 {d}c B  | B12  | B8-B2 z2  | \
w:  en *  gin *  *  le  |  re   |   | 
g8-g2 f2  | f4 e2 e d e2 f {c}d  | d12  | 
w:  bir   |  in *  ce  *  *  hü  |  zün    | 
d2 .G2 .B2 .d6  | B4 d2 d4 c2  | c4 B2 B2 ^A2 B2  | c12  | \
w:  SAZ  |  Sol *  du   |  gül *  ler  *  gi  |  bi   | 
c8-c2 B2  | e8-e2 d2  | d4 c2 c4 B2  | 
w:   |  sev  |  da *  lı  yü  | 
d12  | d2 .G2 .B2 .d6  | B4 d2 d4 c2  | \
w:  zün    |  SAZ  |  Sol *  du   | 
c4 B2 B2 ^A2 B2  | c12  | c8-c2 B2  | e8-e2 d2  | 
w:  gül *  ler  *  gi  |  bi   |   |  sev  | 
d4 c2 c B c2 d B  | B12  | B8-B2 z2  | G6 B4 c2  | \
w:  da *  lı  *  *  yü  |  zün    |   |  Ner de   | 
d6 e4 f2  | g12  | g6 z4 g2  | 
w:  meh tâ  |  bı   |  *  ha  | 
g8-g2 f2  | f4 e2 e4 f2  | g6 g2 f2 e2  | \
w:  zin   |  gön *  lü mü  |  zün   SAZ  | 
d2 e2 d2 c2 B2 A2  | G6 B4 c2  | d6 e4 f2  | 
w:   |  Ner de   |  meh tâ  | 
g12  | g6 z4 a2  | a8-a2 g2  | f4 e2 {f}e d e2 f {c}d  | d12  | \
w:  bı   |  *  ha  |  zin   |  gön *  *  lü *  *  mü  |  zün    | 
d2 G2 B2 d6  | B4 d2 d4 c2  | 
w:  SAZ  |  Sol *  du   | 
c4 B2 B2 ^A2 B2  | c12  | c8-c2 B2  | e8-e2 d2  | \
w:  gül *  ler  *  gi  |  bi   |   |  sev  | 
d4 c2 c4 B2  | d12  | d2 .G2 .B2 .d6  | 
w:  da *  lı  yü  |  zün    |  SAZ  | 
B4 d2 d4 c2  | c4 B2 B2 ^A2 B2  | c12  | \
w:  Sol *  du   |  gül *  ler  *  gi  |  bi   | 
c8-c2 B2  | e8-e2 d2  | d4 c2 c B c2 d B  | 
w:   |  sev  |  da *  lı  *  *  yü  | 
B12  | B8-B2 z2  | |


